X:70
T:Doctor Gilbert
Z: id:dc-reel-63
M:C
L:1/8
K:E Dorian
gf|eBBA B3c|dBAd BAGF|EDB,D G3F|EDB,E DB,A,G,|!
B,EED E3F|GEFD EFGA|Bded Bdgb|afdf e2:|!
gf|eBB2 gBB2|defg afdf|g2bg f2af|gefd edB2|!
afdf edBc|dBAF DEFD|EG=cA Bdgb|afdf e2:|!

